svg/git-pr.svg

<?xml version="1.0" encoding="UTF-8"?>
<svg xmlns="http://www.w3.org/2000/svg" xmlns:xlink="http://www.w3.org/1999/xlink" width="32" height="32" viewBox="0 0 32 32">
<path fill-rule="nonzero" fill="rgb(0%, 0%, 0%)" fill-opacity="1" d="M 21.332031 25.667969 C 21.300781 24.097656 22.117188 22.632812 23.472656 21.839844 C 24.828125 21.042969 26.503906 21.046875 27.859375 21.839844 C 29.214844 22.636719 30.03125 24.101562 29.996094 25.671875 C 29.996094 28.066406 28.054688 30.003906 25.660156 30.003906 C 23.269531 30 21.332031 28.058594 21.332031 25.667969 M 2 25.667969 C 2 23.273438 3.941406 21.335938 6.335938 21.335938 C 8.730469 21.335938 10.667969 23.273438 10.667969 25.667969 C 10.667969 28.0625 8.730469 30.003906 6.335938 30.003906 C 3.941406 30.003906 2 28.0625 2 25.667969 M 2 6.332031 C 2 3.9375 3.941406 2 6.335938 2 C 8.730469 2 10.667969 3.941406 10.667969 6.335938 C 10.667969 7.484375 10.210938 8.589844 9.398438 9.402344 C 8.15625 10.640625 6.292969 11.007812 4.675781 10.335938 C 3.054688 9.664062 2 8.085938 2 6.332031 M 6.332031 4 C 5.042969 4 4 5.046875 4 6.335938 C 4 7.625 5.046875 8.667969 6.335938 8.667969 C 7.625 8.667969 8.667969 7.621094 8.667969 6.332031 C 8.667969 5.042969 7.621094 4 6.332031 4 M 6.332031 23.332031 C 5.042969 23.332031 4 24.378906 4 25.667969 C 4 26.957031 5.046875 28 6.335938 28 C 7.625 28 8.667969 26.953125 8.667969 25.664062 C 8.667969 24.375 7.621094 23.332031 6.332031 23.332031 M 25.667969 23.332031 C 24.378906 23.332031 23.332031 24.375 23.332031 25.664062 C 23.332031 26.953125 24.375 28 25.664062 28 C 26.953125 28 28 26.957031 28 25.667969 C 28 24.378906 26.957031 23.332031 25.667969 23.332031 M 17.875 2.292969 C 18.261719 2.683594 18.261719 3.316406 17.875 3.707031 L 16.246094 5.332031 L 21.667969 5.332031 C 24.429688 5.332031 26.667969 7.570312 26.667969 10.332031 L 26.667969 22 C 26.667969 22.550781 26.21875 23 25.667969 23 C 25.117188 23 24.667969 22.550781 24.667969 22 L 24.667969 10.332031 C 24.667969 8.675781 23.324219 7.332031 21.667969 7.332031 L 16.246094 7.332031 L 17.875 8.960938 C 18.253906 9.351562 18.246094 9.976562 17.863281 10.363281 C 17.476562 10.746094 16.855469 10.753906 16.460938 10.375 L 13.125 7.039062 C 12.738281 6.648438 12.738281 6.015625 13.125 5.625 L 16.460938 2.292969 C 16.851562 1.902344 17.484375 1.902344 17.875 2.292969 M 6.332031 9.667969 C 6.886719 9.667969 7.332031 10.113281 7.332031 10.667969 L 7.332031 21.332031 C 7.332031 21.882812 6.882812 22.332031 6.332031 22.332031 C 5.78125 22.332031 5.332031 21.882812 5.332031 21.332031 L 5.332031 10.667969 C 5.332031 10.117188 5.78125 9.667969 6.332031 9.667969 "/>
</svg>

<svg role="img" viewBox="0 0 32 32" height="32" width="32" xmlns="http://www.w3.org/2000/svg"><path d="M21.332 25.668a4.333 4.333 0 1 1 8.664.004 4.332 4.332 0 1 1-8.664-.004M2 25.668a4.333 4.333 0 0 1 4.336-4.332 4.33 4.33 0 0 1 4.332 4.332 4.335 4.335 0 0 1-4.332 4.336A4.336 4.336 0 0 1 2 25.668M2 6.332A4.333 4.333 0 0 1 6.336 2a4.333 4.333 0 0 1 4.332 4.336 4.34 4.34 0 0 1-1.27 3.066 4.333 4.333 0 0 1-4.722.934A4.332 4.332 0 0 1 2 6.332M6.332 4a2.334 2.334 0 1 0 .004 4.668A2.334 2.334 0 0 0 6.332 4m0 19.332A2.334 2.334 0 1 0 6.336 28a2.334 2.334 0 0 0-.004-4.668m19.336 0A2.334 2.334 0 1 0 25.664 28a2.334 2.334 0 0 0 .004-4.668M17.875 2.293c.387.39.387 1.023 0 1.414l-1.629 1.625h5.422a5 5 0 0 1 5 5V22c0 .55-.45 1-1 1s-1-.45-1-1V10.332a3 3 0 0 0-3-3h-5.422l1.629 1.629c.379.39.371 1.016-.012 1.402a1.003 1.003 0 0 1-1.402.012l-3.336-3.336a1.007 1.007 0 0 1 0-1.414l3.336-3.332a1 1 0 0 1 1.414 0M6.332 9.668c.555 0 1 .445 1 1v10.664c0 .55-.45 1-1 1s-1-.45-1-1V10.668c0-.55.45-1 1-1"/></svg>
